!!!COM: Anon.
!!!OTL: Era um pai que tinha tre^s filhas
!!!OTL: Romanceiro Folclorico do Brasil
!!!CNT: Brasil
!!!OCY: Brasil
!!!ODT: <1971///
!!!PSR: Irmaos Vitale
!!!PSP: Sao Paulo, Brasil
!!!PDT: 1949///
!!!PPE: Rossini Tavares de Lima
!!!PPG: pages 24-25
!! Romance: Silvaninha
!! Place: Jardinopolis, Sao Paulo, Brasil
**kern
*clefG2
*k[b-e-a-]
*M3/4
*MM98
8c
8e-
=
4g
8g
8g
8g
8e-
=
4.c
8g
8a-
8g
=
4f
4d
8g
8f
=
4e-
4c
8cc
8cc
=
4cc
4ee-
8dd
8cc
=
2g
8g
8a-
=
4g
4f
8e-
8d
=
2c
==
*-
